X: 1
P: Christmas in Killarney    [Refrain]
C: John Redmond, James Cavanaugh, Frank Weldon
Z: 2018 John Chambers <jc:trillian.mit.edu>
M: 6/8
L: 1/8
K: D
"A1"[|] B |\
"D"A2D D2D | A2D D2D | "G"BAG BAG | "D"A2D D2D |\
"G"B2c d2c | "D"B2A z2D | "E7"EFE "A7"D2C | "D"D3 z2 |]


